X: 49
T: Miss Shepherd
C: J.S.Skinner
O: Portland Collection version
Z: 2015 John Chambers <jc:trillian.mit.edu>
M: C|
L: 1/8
K: Am
|:::\
"Am"A,B,CD E2DC | "G"B,G^FG DB,G,B, | "Am"A,B,CD EGAc | "Em"BAGB "Am"BcA2 :::|
|:\
"A"^gaed ^cBA^F | "G"=GED=C B,A,G,2 | "A"^gaed ^cBA^F | "Em"=GABc "A"^cAA2 ||
"A"^gaed ^cBA^F | "G"=GED=C B,A,G,B, | "Am"A,B,CD EGAc | "Em"BAGB "Am"BcA2 |]

%%sep 1 1 500

